icons/edit-circle-line.svg

<svg xmlns="http://www.w3.org/2000/svg" width="24" height="24" fill="none"><g clip-path="url(#a)"><g><path fill="#121212" d="M12.684 4.029C11.0494 3.88879 9.41122 4.25452 7.99146 5.07662C6.57171 5.89873 5.43903 7.13746 4.74694 8.62494C4.05486 10.1124 3.83683 11.7767 4.1224 13.3923C4.40797 15.0078 5.18334 16.4965 6.34342 17.6566C7.5035 18.8167 8.99219 19.592 10.6077 19.8776C12.2233 20.1632 13.8876 19.9451 15.3751 19.2531C16.8625 18.561 18.1013 17.4283 18.9234 16.0085C19.7455 14.5888 20.1112 12.9506 19.971 11.316C19.9009 10.4758 19.6973 9.65214 19.368 8.876L20.868 7.374C21.6149 8.80139 22.0034 10.389 22 12C22 17.523 17.523 22 12 22C6.477 22 2 17.523 2 12C2 6.477 6.477 2 12 2C13.6107 1.99857 15.1979 2.38696 16.626 3.132L15.125 4.632C14.3488 4.30275 13.5252 4.0992 12.685 4.029H12.684ZM20.485 2.1L21.9 3.515L12.708 12.707L11.296 12.71L11.294 11.293L20.485 2.1Z"/></g></g><defs><clipPath id="a"><rect width="24" height="24" fill="white"/></clipPath></defs></svg>

<svg width="24" height="24" fill="none" xmlns="http://www.w3.org/2000/svg"><g clip-path="url(#a)"><path d="M12.684 4.029a8 8 0 1 0 6.684 4.847l1.5-1.502A9.933 9.933 0 0 1 22 12c0 5.523-4.477 10-10 10S2 17.523 2 12 6.477 2 12 2a9.982 9.982 0 0 1 4.626 1.132l-1.501 1.5a7.941 7.941 0 0 0-2.44-.603h-.001ZM20.485 2.1 21.9 3.515l-9.192 9.192-1.412.003-.002-1.417L20.485 2.1Z" /></g><defs><clipPath id="a"><path fill="#fff" d="M0 0h24v24H0z"/></clipPath></defs></svg>
